!!!COM:	la Rue, Pierre de
!!!CDT:	~1452///-1518/11/20
!!!OPR:	Missa De sancta cruce
!!!ONM:	5
!!!OTL:	Agnus Dei
!!!AGN:	Mass; Agnus Dei
!!!SCT:	Rue1011e
!!!SCA:	Rue1011e
!!!voices:	5
!!!voices-OPR:	5
**kern	**kern	**kern	**kern	**kern
*staff5	*staff4	*staff3	*staff2	*staff1
*Ivox	*Ivox	*Ivox	*Ivox	*Ivox
*I"Bassus	*I"Tenor2	*I"Tenor	*I"Contra	*I"Discantus
*I'B	*I'T2	*I'T	*I'C	*I'D
*>[A,B]	*>[A,B]	*>[A,B]	*>[A,B]	*>[A,B]
*>A	*>A	*>A	*>A	*>A
*clefF4	*clefGv2	*clefGv2	*clefG2	*clefG2
*k[b-]	*k[b-]	*k[b-]	*k[b-]	*k[b-]
*M3/1	*M3/1	*M3/1	*M3/1	*M3/1
*met(O)	*met(O)	*met(O)	*met(O)	*met(O)
!!section: Agnus Dei I
!!!OMD: Agnus Dei I
=1-	=1-	=1-	=1-	=1-
0.r	0.r	0.r	0g	0.r
.	.	.	2f/	.
.	.	.	[2g/	.
=2	=2	=2	=2	=2
0.r	0.r	0.r	4g/]	0.dd
.	.	.	4f/	.
.	.	.	1d	.
.	.	.	2f/	.
.	.	.	2d/	.
.	.	.	[2f/	.
=3	=3	=3	=3	=3
0.r	0.r	0.r	4f/]	2cc\
.	.	.	4e/	.
.	.	.	4d/	2.dd\
.	.	.	4c/	.
.	.	.	2B-/	.
.	.	.	.	4cc\
.	.	.	2.f/	2.a/
.	.	.	4e/	4b-\
.	.	.	2e/	[2cc\
=4	=4	=4	=4	=4
0.r	1r	0.r	2.f/	4cc\]
.	.	.	.	4b-\
.	.	.	.	4a/
.	.	.	4e/	4g/
.	1r	.	4f/	2f/
.	.	.	4e/	.
.	.	.	4d/	2.cc\
.	.	.	4c/	.
.	1G	.	1d	.
.	.	.	.	4b-\
.	.	.	.	2b-\
=5	=5	=5	=5	=5
1r	2A/	0.r	4c/	2.cc\
.	.	.	4d/	.
.	2.c\	.	4e/	.
.	.	.	4f/	4b-\
1r	.	.	4e/	4cc\
.	4d\	.	4d/	4b-\
.	2e\	.	1g	4a/
.	.	.	.	4g/
1D	1d	.	.	1a
.	.	.	2f/	.
=6	=6	=6	=6	=6
2E\	0.r	0.r	2.g/	4g/
.	.	.	.	4a/
2.G\	.	.	.	4b-\
.	.	.	4f/	4cc\
.	.	.	4g/	4b-\
4A\	.	.	4f/	4a/
2B-\	.	.	4e/	1dd
.	.	.	4d/	.
1A	.	.	1e	.
.	.	.	.	2cc#i\
=7	=7	=7	=7	=7
0.r	1.B-	0.G	0.d	0.dd
.	4A/	.	.	.
.	4G/	.	.	.
.	2.B-\	.	.	.
.	4c\	.	.	.
=8	=8	=8	=8	=8
0G	2d\	0.B-	1r	1r
.	2.d\	.	.	.
.	.	.	1r	1r
.	4c\	.	.	.
.	4B-\	.	.	.
.	4A/	.	.	.
1G	1G	.	1d	1dd
=9	=9	=9	=9	=9
2.D\	2.F/	0.A	2.d/	0ff
4E\	4G/	.	4c/	.
2F\	2A/	.	2c/	.
2D\	2F/	.	2d/	.
1C	1c	.	2e/	1ee
.	.	.	2c/	.
=10	=10	=10	=10	=10
0BB-	0F	0.B-	2r	1dd
.	.	.	2f/	.
.	.	.	2.d/	2dd\
.	.	.	.	1b-
.	.	.	4e/	.
1BB-	1B-	.	1f	.
.	.	.	.	4a/
.	.	.	.	4g/
=11	=11	=11	=11	=11
1F	2r	1c	1r	2a/
.	2A/	.	.	1cc
1r	2F/	2A/	1r	.
.	2G/	2B-\	.	2.b-\
1F	1A	1c	1f	.
.	.	.	.	4a/
.	.	.	.	2a/
=12	=12	=12	=12	=12
0.G	0G	0B-	2d/	0b-
.	.	.	1e-i	.
.	.	.	2.d/	.
.	1r	[1B-	.	2r
.	.	.	4c/	.
.	.	.	[2B-/	2b-\
=13	=13	=13	=13	=13
0E-i	0.r	1B-]	4B-/]	2g/
.	.	.	4A/	.
.	.	.	2G/	1b-
.	.	0G	1B-	.
.	.	.	.	2a/
1E-i	.	.	1c	1g
=14	=14	=14	=14	=14
0D	2r	1B-	0d	0f
.	1F	.	.	.
.	.	0A	.	.
.	4E/	.	.	.
.	4D/	.	.	.
1D	1F	.	1d	1f
=15	=15	=15	=15	=15
1BB-	2.F/	1d	1f	1b-
.	4G/	.	.	.
2C/	4A/	2c\	2e/	2a/
.	4B-\	.	.	.
2E-i\	2c\	2.c\	2g/	2g/
1D	1d	.	1f	1dd
.	.	4B-\	.	.
.	.	2B-\	.	.
=16	=16	=16	=16	=16
0.C	1G	1c	2r	1.ee
.	.	.	1g	.
.	0c	[0G	.	.
.	.	.	1e	1cc
.	.	.	4d/	4b-\
.	.	.	4c/	4a/
=17	=17	=17	=17	=17
0.r	2.B-\	0.G]	0.g	2g/
.	.	.	.	1dd
.	4G/	.	.	.
.	2B-\	.	.	.
.	2c\	.	.	2.cc\
.	1d	.	.	.
.	.	.	.	4bni\
.	.	.	.	2bni\
=18	=18	=18	=18	=18
2.C/	0c	0.r	2r	1cc
.	.	.	1g	.
4D\	.	.	.	.
2E\	.	.	.	1r
2.F\	.	.	2.a/	.
.	1r	.	.	1cc
4E\	.	.	4g/	.
4D\	.	.	4f/	.
4C/	.	.	4e/	.
=19	=19	=19	=19	=19
0BB-	2r	0B-	0f	1dd
.	1F	.	.	.
.	.	.	.	0ff
.	1B-	.	.	.
1BB-	.	1d	1f	.
.	2A/	.	.	.
=20	=20	=20	=20	=20
2C/	2G/	0c	2r	2ee\
2F\	2F/	.	2f/	2a/
2E\	2r	.	2g/	2g/
2.F\	2F/	.	2.f/	2.a/
.	1c	1A	.	.
4G\	.	.	4e/	4b-\
2A\	.	.	2c/	2cc\
=21	=21	=21	=21	=21
2.G\	2B-\	1B-	1g	0dd
.	2G/	.	.	.
4E\	.	.	.	.
2F\	0d	2A/	2a/	.
2G\	.	2B-\	2.g/	.
1D	.	1A	.	2.dd\
.	.	.	4f/	.
.	.	.	2f/	.
.	.	.	.	8cc\L
.	.	.	.	8dd\J
=22	=22	=22	=22	=22
1r	2.B-\	0.G	0.g	2ee-i\
.	.	.	.	2.dd\
.	4c\	.	.	.
1r	2d\	.	.	.
.	.	.	.	4cc\
.	2e-i\	.	.	1b-
1E-i	1c	.	.	.
.	.	.	.	4a/
.	.	.	.	4g/
=23	=23	=23	=23	=23
0D	2d\	0.r	1r	0f
.	1B-	.	.	.
.	.	.	1r	.
.	2A/	.	.	.
1D	1A	.	1d	1f
=24	=24	=24	=24	=24
0C	2r	0c	1.e	1.g
.	2G/	.	.	.
.	2.c\	.	.	.
.	.	.	2c/	2g/
.	4B-\	.	.	.
1C	2A/	1c	2.e/	1cc
.	[2G/	.	.	.
.	.	.	4f/	.
=25	=25	=25	=25	=25
1r	2G/]	[0.d	2g/	2b-\
.	2A/	.	2f/	2.a/
1G	1B-	.	1g	.
.	.	.	.	4g/
.	.	.	.	2g/
2.D\	1A	.	1f	1a
4E\	.	.	.	.
=26	=26	=26	=26	=26
2F\	2A/	0d]	2f/	0.r
2.G\	1B-	.	2.d/	.
4F\	.	.	4e/	.
4E\	1A	.	2f/	.
4D\	.	.	.	.
1E	.	1c#i	1g	.
.	2G/	.	.	.
=27	=27	=27	=27	=27
0.D	1A	0d	0f	1a
.	1r	.	.	2b-\
.	.	.	.	1a
.	[1A	1f	1r	.
.	.	.	.	[2dd\
=28	=28	=28	=28	=28
2r	1A]	1e	0.r	2dd\]
2A\	.	.	.	2cc\
2B-\	2r	2d\	.	2dd\
2G\	2B-\	2e\	.	2b-\
2A\	2A/	2c\	.	2cc\
[2D\	[2F/	2d\	.	2a/
=29	=29	=29	=29	=29
2D\]	4F/]	2r	0.r	2b-\
.	4G/	.	.	.
2D\	4A/	2d\	.	2a/
.	4B-\	.	.	.
2C/	2c\	2e\	.	2r
2F\	1A	2d\	.	2a/
1E	.	2e\	.	2.g/
.	2G/	2c#i\	.	.
.	.	.	.	4e/
=30	=30	=30	=30	=30
0D	0.A	1d	2.f/	4f/
.	.	.	.	4g/
.	.	.	.	2a/
.	.	.	4g/	.
.	.	2r	2a/	2d/
.	.	2d\	2d/	2dd\
1r	.	2e\	1a	2.cc\
.	.	2c\	.	.
.	.	.	.	4a/
=31	=31	=31	=31	=31
1D	2.F/	2d\	2r	2b-\
.	.	2f\	2a/	1a
.	4G/	.	.	.
2C/	0A	2e\	0a	.
2D\	.	1d	.	4g/
.	.	.	.	4f/
1A	.	.	.	1e
.	.	2c#i\	.	.
=32	=32	=32	=32	=32
0.D	2r	[0.dl	2.f/	2r
.	2A/	.	.	1a
.	.	.	4g/	.
.	2F/	.	2a/	.
.	2G/	.	2b-\	2.g/
.	1A	.	1a	.
.	.	.	.	4f#i/
.	.	.	.	2f#i/
=33	=33	=33	=33	=33
0G	1.B-	0.d_	0g	2g/
.	.	.	.	1dd
.	2A/	.	.	2cc\
1G	1G	.	1g	1b-
=34	=34	=34	=34	=34
0.Dl	2.A/	0.d]	0.fl	0.al
.	4F/	.	.	.
.	0Fl	.	.	.
!!LO:LB:i:g=z
=35||	=35||	=35||	=35||	=35||
*>B	*>B	*>B	*>B	*>B
*clefF4	*clefGv2	*clefGv2	*clefG2	*clefG2
*k[b-]	*k[b-]	*k[b-]	*k[b-]	*k[b-]
*M2/1	*M2/1	*M2/1	*M2/1	*M2/1
*met(C2)	*met(C2)	*met(C2)	*met(C2)	*met(C2)
!!section: Agnus Dei II
!!!OMD: Agnus Dei II
0r	1A	0r	0r	0r
.	1d	.	.	.
=36	=36	=36	=36	=36
0r	1c	0r	1A	0r
.	1f	.	1d	.
=37	=37	=37	=37	=37
0r	2e\	0r	1c	0r
.	2c\	.	.	.
.	2d\	.	[1f	.
.	4c\	.	.	.
.	4B-\	.	.	.
=38	=38	=38	=38	=38
0r	1A	[0f	2f/]	1a
.	.	.	2e/	.
.	1B-	.	2d/	1dd
.	.	.	4c/	.
.	.	.	4B-/	.
=39	=39	=39	=39	=39
0r	0F	0f]	2.A/	1cc
.	.	.	4B-/	.
.	.	.	2c/	[1ff
.	.	.	[2d/	.
=40	=40	=40	=40	=40
1D	0r	[0d	2d/]	2ff\]
.	.	.	2c/	2ee\
1G	.	.	4B-/	2dd\
.	.	.	4c/	.
.	.	.	4d/	4cc\
.	.	.	4e/	4b-\
=41	=41	=41	=41	=41
1F	2r	0d_	1f	1a
.	1f	.	.	.
[1B-	.	.	2d/	1d
.	2e\	.	[2g/	.
=42	=42	=42	=42	=42
2B-\]	2d\	0d]	2g/]	0r
2A\	2c\	.	2f/	.
2G\	2B-\	.	2g/	.
4F\	4A/	.	[2a/	.
4E\	4G/	.	.	.
=43	=43	=43	=43	=43
2D\	2F/	1d	2a/]	0r
2F\	2A/	.	2f/	.
1E	4G/	1c#i	1g	.
.	4F/	.	.	.
.	2G/	.	.	.
=44	=44	=44	=44	=44
0D	0A	[0d	0f	1r
.	.	.	.	[1ff
=45	=45	=45	=45	=45
1D	0r	0d_	0r	2ff\]
.	.	.	.	2ee\
1G	.	.	.	2dd\
.	.	.	.	4cc\
.	.	.	.	4b-\
=46	=46	=46	=46	=46
1F	0r	0d]	0r	2a/
.	.	.	.	2d/
[1B-	.	.	.	[1dd
=47	=47	=47	=47	=47
2B-\]	0r	0r	0r	2dd\]
2A\	.	.	.	2cc\
2G\	.	.	.	2b-\
4F\	.	.	.	4a/
4E\	.	.	.	4g/
=48	=48	=48	=48	=48
0D	1r	1.f	1a	1f
.	2r	.	2f/	1a
.	2c\	2e\	2f/	.
=49	=49	=49	=49	=49
0r	2B-\	2d\	2g/	2b-\
.	4A/	4c\	4f/	2.dd\
.	4G/	4B-\	4e/	.
.	2F/	2A/	2d/	.
.	.	.	.	4cc\
.	[2G/	2G/	2g/	[2b-\
=50	=50	=50	=50	=50
0r	2G/]	1A	2e/	2b-\]
.	2F/	.	2f/	1a
.	1G	1B-	2.d/	.
.	.	.	.	2g/
.	.	.	4e/	.
=51	=51	=51	=51	=51
2r	[0c	[0A	4f/	0a
.	.	.	4g/	.
1F	.	.	1a	.
4E\	.	.	4g/	.
4D\	.	.	4f/	.
=52	=52	=52	=52	=52
2C/	0c]	0A]	2e/	0r
2F\	.	.	2f/	.
2C/	.	.	2e/	.
[2F\	.	.	[2a/	.
=53	=53	=53	=53	=53
4F\]	1r	1c	2a/]	0r
4G\	.	.	.	.
2E\	.	.	2g/	.
1D	1F	1d	4f/	.
.	.	.	4e/	.
.	.	.	2f/	.
=54	=54	=54	=54	=54
[0C	1.c	0e	2.g/	1r
.	.	.	4f/	.
.	.	.	4e/	1g
.	.	.	4d/	.
.	4B-\	.	[2g/	.
.	4A/	.	.	.
=55	=55	=55	=55	=55
0C]	2G/	0c	2g/]	1cc
.	2A/	.	1f	.
.	1G	.	.	1cc
.	.	.	2e/	.
=56	=56	=56	=56	=56
2r	0F	1r	2.f/	2.a/
1F	.	.	.	.
.	.	.	4g/	4b-\
.	.	1A	1a	2cc\
2D\	.	.	.	2dd\
=57	=57	=57	=57	=57
1A	0r	0c	2r	1ee
.	.	.	1a	.
2F\	.	.	.	2ff\
[2c\	.	.	4a/	[2ee\
.	.	.	[4a/	.
=58	=58	=58	=58	=58
4c\]	0r	1d	4a/]	2ee\]
4A\	.	.	4g/	.
2B-\	.	.	2g/	2.dd\
1A	.	1e	1a	.
.	.	.	.	4cc#i\
.	.	.	.	2cc#i\
=59	=59	=59	=59	=59
0D	0r	0d	2r	1dd
.	.	.	1a	.
.	.	.	.	2r
.	.	.	4g/	2a/
.	.	.	4f/	.
=60	=60	=60	=60	=60
0r	0r	0r	2g/	2b-\
.	.	.	2a/	2cc\
.	.	.	2f/	2a/
.	.	.	[2g/	[2b-\
=61	=61	=61	=61	=61
0r	0r	0r	2g/]	2b-\]
.	.	.	4f/	4a/
.	.	.	4e/	4g/
.	.	.	2f/	2a/
.	.	.	2g/	2b-\
=62	=62	=62	=62	=62
0r	0r	0r	2e/	2g/
.	.	.	1f	1a
.	.	.	4e/	4g/
.	.	.	4d/	4f/
=63	=63	=63	=63	=63
0r	0r	0r	2e/	2g/
.	.	.	2f/	2a/
.	.	.	2d/	2f/
.	.	.	[2e/	[2g/
=64	=64	=64	=64	=64
0r	1r	0r	4e/]	4g/]
.	.	.	4d/	4f/
.	.	.	1d	4e/
.	.	.	.	4d/
.	1A	.	.	1e
.	.	.	2c#i/	.
=65	=65	=65	=65	=65
0D	2B-\	[0f	0d	1d
.	1A	.	.	.
.	.	.	.	1r
.	[2d\	.	.	.
=66	=66	=66	=66	=66
1D	2d\]	0f]	0r	0r
.	4c\	.	.	.
.	4B-\	.	.	.
2r	2A/	.	.	.
2A\	2c\	.	.	.
=67	=67	=67	=67	=67
2.B-\	2.d\	[0f	0r	0r
4c\	4e\	.	.	.
2A\	2c\	.	.	.
[2B-\	[2d\	.	.	.
=68	=68	=68	=68	=68
2B-\]	2d\]	0f]	0r	0r
4A\	4c\	.	.	.
4G\	4B-\	.	.	.
2A\	2c\	.	.	.
2B-\	2d\	.	.	.
=69	=69	=69	=69	=69
2G\	2B-\	1e	0r	0r
1A	1c	.	.	.
.	.	1f	.	.
4G\	4B-\	.	.	.
4F\	4A/	.	.	.
=70	=70	=70	=70	=70
2G\	2B-\	1e	0r	0r
2A\	2c\	.	.	.
2F\	2A/	1d	.	.
[2B-\	2G/	.	.	.
=71	=71	=71	=71	=71
2B-\]	1A	1c	0r	0r
2.A\	.	.	.	.
.	1d	1B-	.	.
4G\	.	.	.	.
2G\	.	.	.	.
=72	=72	=72	=72	=72
2A\	2.c\	2.A/	0r	0r
1F	.	.	.	.
.	4B-\	4B-\	.	.
.	2A/	2c\	.	.
4E\	4G/	[2d\	.	.
4D\	4F/	.	.	.
=73	=73	=73	=73	=73
2E\	2G/	2d\]	1r	0r
2F\	2A/	1c	.	.
1D	1F	.	1d	.
.	.	2Bni\	.	.
=74	=74	=74	=74	=74
[0C	0G	0c	1e	1g
.	.	.	1g	4g/
.	.	.	.	4f/
.	.	.	.	4e/
.	.	.	.	4d/
=75	=75	=75	=75	=75
0C]	0r	0r	4g/	1c
.	.	.	4f/	.
.	.	.	4e/	.
.	.	.	4d/	.
.	.	.	2c/	1cc
.	.	.	2g/	.
=76	=76	=76	=76	=76
0r	0r	0r	1a	4cc\
.	.	.	.	4b-\
.	.	.	.	4a/
.	.	.	.	4g/
.	.	.	4a/	2.f/
.	.	.	4g/	.
.	.	.	4f/	.
.	.	.	4e/	4g/
=77	=77	=77	=77	=77
0r	0r	0r	1d	2a/
.	.	.	.	2b-\
.	.	.	2e/	2cc\
.	.	.	[2f/	[2dd\
=78	=78	=78	=78	=78
0r	0r	0r	4f/]	2dd\]
.	.	.	4e/	.
.	.	.	4d/	2.cc\
.	.	.	4c/	.
.	.	.	1d	.
.	.	.	.	4bni\
.	.	.	.	2bni\
=79	=79	=79	=79	=79
0C	0G	[0e	[0c	0cc
=80	=80	=80	=80	=80
1C	1G	0e]	0c]	0r
1C	1G	.	.	.
=81	=81	=81	=81	=81
1.F	1.A	1d	0r	0r
.	.	1c	.	.
2E\	[2G/	.	.	.
=82	=82	=82	=82	=82
1D	2G/]	2r	0r	0r
.	2F/	2B-\	.	.
2r	2A/	1c	.	.
2C/	2G/	.	.	.
=83	=83	=83	=83	=83
1D	1d	2r	0r	0r
.	.	2B-\	.	.
2r	1e	1c	.	.
2C/	.	.	.	.
=84	=84	=84	=84	=84
2D\	2r	2B-\	0r	0r
2C/	2e\	2c\	.	.
2D\	2f\	2B-\	.	.
2C/	2e\	[2c\	.	.
=85	=85	=85	=85	=85
2F\	4f\	4c\]	0r	1r
.	4e\	4B-\	.	.
2G\	4d\	4A/	.	.
.	4c\	4G/	.	.
1D	1d	1A	.	1f
=86	=86	=86	=86	=86
[0E-i	1.B-	1G	0g	1g
.	.	1G	.	[1b-
.	2A/	.	.	.
=87	=87	=87	=87	=87
1E-]	1G	0B-	1e-i	2b-\]
.	.	.	.	4a/
.	.	.	.	4g/
1D	1F	.	1f	[1dd
=88	=88	=88	=88	=88
0BB-	[0F	1B-	1d	2dd\]
.	.	.	.	4cc\
.	.	.	.	4b-\
.	.	[1B-	1d	1ff
=89	=89	=89	=89	=89
0BB-	0F]	1B-]	0f	2dd\
.	.	.	.	1ff
.	.	[1d	.	.
.	.	.	.	[2dd\
=90	=90	=90	=90	=90
1BB-	0r	1d]	2.f/	2dd\]
.	.	.	.	4cc\
.	.	.	4g/	4b-\
2F\	.	1d	2a/	2a/
2G\	.	.	2g/	2b-\
=91	=91	=91	=91	=91
2A\	0r	1c	2e/	2cc\
1F	.	.	2f/	1a
.	.	1d	2a/	.
2G\	.	.	[2g/	2b-\
=92	=92	=92	=92	=92
2A\	0r	1c	4g/]	2cc\
.	.	.	4f/	.
2F\	.	.	1f	1a
1G	.	1B-	.	.
.	.	.	2e/	2g/
=93	=93	=93	=93	=93
0F	1r	1c	2f/	1a
.	.	.	4e/	.
.	.	.	4d/	.
.	2.c\	1A	2c/	1r
.	.	.	2f/	.
.	4d\	.	.	.
=94	=94	=94	=94	=94
0r	2e\	2c\	2e/	0r
.	2f\	2d\	1a	.
.	1d	1B-	.	.
.	.	.	2g/	.
=95	=95	=95	=95	=95
0F	0c	0A	0a	0cc
=96	=96	=96	=96	=96
1D	1F	0B-	0r	1dd
1D	1F	.	.	1dd
=97	=97	=97	=97	=97
[0C	1.G	0c	[0g	0ee
.	4A/	.	.	.
.	4B-\	.	.	.
=98	=98	=98	=98	=98
0C]	1c	0e	1g]	1r
.	1c	.	1e	1cc
=99	=99	=99	=99	=99
0BB-	1F	0d	1f	1dd
.	1B-	.	1d	1ff
=100	=100	=100	=100	=100
0C	1G	0c	2g/	2ee\
.	.	.	1g	1ee
.	1c	.	.	.
.	.	.	4f/	4dd\
.	.	.	4e/	4cc\
=101	=101	=101	=101	=101
1r	[0F	1r	2f/	2dd\
.	.	.	2g/	2b-\
1F	.	1c	1a	1cc
=102	=102	=102	=102	=102
[0BB-	0F]	1B-	0b-	1dd
.	.	[1d	.	2dd\
.	.	.	.	[2ff\
=103	=103	=103	=103	=103
1BB-]	0r	1d]	1b-	2ff\]
.	.	.	.	2ff\
1C	.	1c	[1g	2ee\
.	.	.	.	2cc\
=104	=104	=104	=104	=104
1G	1r	1B-	1g]	1dd
1C	1G	1c	1g	[1cc
=105	=105	=105	=105	=105
0F	1A	1A	1.f	2cc\]
.	.	.	.	2b-\
.	1F	1c	.	[1a
.	.	.	2e/	.
=106	=106	=106	=106	=106
1r	0G	0B-	1d	2a/]
.	.	.	.	2g/
1E	.	.	1e	1g
=107	=107	=107	=107	=107
1F	1F	1A	1c	1a
[1BB-	[1B-	[1f	1d	1dd
=108	=108	=108	=108	=108
1BB-]	2B-\]	1f]	1B-	1dd
.	2A/	.	.	.
1C	1G	1e	1r	1cc
=109	=109	=109	=109	=109
1D	0F	1f	[0f	1a
[1BB-	.	[1d	.	[1b-
=110	=110	=110	=110	=110
1BB-]	0r	1d]	1f]	1b-]
1C	.	1c	1e	[1a
=111	=111	=111	=111	=111
1D	1F	0B-	1f	2a/]
.	.	.	.	4g/
.	.	.	.	4f/
1BB-	1B-	.	1d	1g
=112	=112	=112	=112	=112
1.F	2c\	[0Al	1c	[0al
.	2F/	.	.	.
.	[1c	.	1f	.
4E\	.	.	.	.
4D\	.	.	.	.
=113	=113	=113	=113	=113
1C	1c]	0A_	2e/	0a_
.	.	.	1e	.
1D	1F	.	.	.
.	.	.	2d/	.
=114	=114	=114	=114	=114
0AAl	0cl	0A]	0el	0a]
==	==	==	==	==
*-	*-	*-	*-	*-
!!!RDF**kern: l=long note in original notation
!!!RDF**kern: i=editorial accidental
!!!RDF**kern: V=start of tuplet marker
!!!RDF**kern: Z=end of tuplet marker
!!!ENC:	[Chris Gage]
!!!END:	2012/10/13/
!!!EED:	Jesse Rodin
!!!EEV:	2012/10/13/
!!!ONB:	Translated from MusicXML and edited on 2012/10/13/ by Craig Sapp
!!muse2ps: T^@{OPR}^u^@{ONM}{. }@{OTL}^C^@{COM}^i2I150v85,85,85,85,130c140
